X:3
T:Holzmatt-Juiz  Bb  ABAC
T:Thomas Wieland  (* 8.11.1953)
T:Dirigenten-Notiz  Edi Gasser
C:Unterwalden (CH)
%%partsbox
P:ABAC
M:2/2+3/2
R:Naturjodel
L:1/4
K:Bb
[P:A] B,>CDF | B2F2Bc | dBF>DFd | c2A2| FE/F/ dc | BDF2 | 
B,>CDF | B2F2Bc | dBF>DFd | c>Fc>F | c2d2 | B4 || 
L:1/8
M:2/4
[P:B] c2 A>G | F2Ac | eF dc | B2F>F | DF BF | dB ed | c2A>F | 
E2FA | fe cd | Bd BG | F4 | c2A>G | F2Ac | eF dc | B2F>F | 
DF BF | dB ed | c2A>F | E2FA | fe dc | (B4 | B4) ||  
L:1/4
M:3/4
[P:C] F| d>Fd | edc | B>DF | D F/D/ F/d/ | c>FA | 
EF/E/ F/c/ | B>D B | F2 F | d>Fd | edc | B>DF | 
DF/D/ F/d/ | c>FA | E/F/ e/d/ c/A/ | (B3 | B3) |]
W:
W:Reihenfolge: A-B-A-C  oder  A-B-A-C
W:Noldi Amrhein gewidmet - 1986
W:
W:notiert Edi Gasser. Angaben: Thomas Wieland
W:UJV-Naturjodelsammlung: Code-Nr: 21-03
W:http://www.naturjodler.ch/code 21.htm  (with AUDIO)
%May 19, 2018

